X: 471
P: Longways for as many as will
M: 6/4
L: 1/8
K: Gm
|: A2 |\
def2d2 f3ed2 | (cA3)c2 B4A2 | (BG3)B2 A4G2 | ^F2G2A2 D6 |\
f3ed2 (gd3)(cB) | A4G2 G4 |]

